X:20
T:Silver Slipper, The
R:hop jig
D:Matt Molloy: Heathery Breeze
D:Tommy Keane: The Piper's Apron
Z:id:hn-slipjig-20
M:9/8
K:D
F2D ~D3 F2D|~D3 A2F d2A|F2D ~D3 F2D|1 F2A B2G E2A:|2 F2A B2G E2G||
|:F2A d2c d3|F2A d2A Bcd|1 F2A d2c d2A|B2G E2G G2E:|2 e2c d2A F2A|B2G E2F G2E||

